svg/fluentui-system-icons/ic_fluent_document_one_page_link_24_filled.svg

<svg width="24" height="24" viewBox="0 0 24 24" fill="none" xmlns="http://www.w3.org/2000/svg">
<path d="M4 4.25C4 3.00736 5.00736 2 6.25 2H17.75C18.9926 2 20 3.00736 20 4.25V13.8328C19.4584 13.618 18.868 13.5 18.25 13.5H14.75C12.1266 13.5 10 15.6266 10 18.25C10 19.7743 10.718 21.1308 11.8342 22H6.25C5.00736 22 4 20.9926 4 19.75V4.25ZM16.25 6H7.75C7.33579 6 7 6.33579 7 6.75C7 7.16421 7.33579 7.5 7.75 7.5H16.25C16.6642 7.5 17 7.16421 17 6.75C17 6.33579 16.6642 6 16.25 6ZM16.25 11H7.75C7.33579 11 7 11.3358 7 11.75C7 12.1642 7.33579 12.5 7.75 12.5H16.25C16.6642 12.5 17 12.1642 17 11.75C17 11.3358 16.6642 11 16.25 11ZM22 18.25C22 16.1789 20.3211 14.5 18.25 14.5L18.1482 14.5068C17.7822 14.5565 17.5 14.8703 17.5 15.25C17.5 15.6642 17.8358 16 18.25 16L18.404 16.0052C19.5748 16.0844 20.5 17.0591 20.5 18.25C20.5 19.4926 19.4926 20.5 18.25 20.5L18.2466 20.5046L18.1448 20.5119C17.779 20.5633 17.4983 20.8783 17.5 21.258C17.5019 21.6722 17.8392 22.0065 18.2534 22.0046V22L18.4523 21.9948C20.4276 21.8913 22 20.2543 22 18.25ZM15.5 15.25C15.5 14.8358 15.1642 14.5 14.75 14.5L14.5508 14.5052C12.5724 14.6087 11 16.2457 11 18.25C11 20.3211 12.6789 22 14.75 22L14.8518 21.9932C15.2178 21.9435 15.5 21.6297 15.5 21.25C15.5 20.8358 15.1642 20.5 14.75 20.5L14.596 20.4948C13.4252 20.4156 12.5 19.4409 12.5 18.25C12.5 17.0074 13.5074 16 14.75 16L14.8518 15.9932C15.2178 15.9435 15.5 15.6297 15.5 15.25ZM19 18.25C19 17.8358 18.6642 17.5 18.25 17.5H14.75L14.6482 17.5068C14.2822 17.5565 14 17.8703 14 18.25C14 18.6642 14.3358 19 14.75 19H18.25L18.3518 18.9932C18.7178 18.9435 19 18.6297 19 18.25Z" fill="#212121"/>
</svg>

<svg xmlns="http://www.w3.org/2000/svg" width="24" height="24"><path d="M4 4.25A2.25 2.25 0 0 1 6.25 2h11.5A2.25 2.25 0 0 1 20 4.25v9.583a4.736 4.736 0 0 0-1.75-.333h-3.5a4.75 4.75 0 0 0-2.916 8.5H6.25A2.25 2.25 0 0 1 4 19.75V4.25ZM16.25 6h-8.5a.75.75 0 0 0 0 1.5h8.5a.75.75 0 0 0 0-1.5Zm0 5h-8.5a.75.75 0 0 0 0 1.5h8.5a.75.75 0 0 0 0-1.5ZM22 18.25a3.75 3.75 0 0 0-3.75-3.75l-.102.007A.75.75 0 0 0 18.25 16l.154.005a2.25 2.25 0 0 1-.154 4.495l-.003.005-.102.007a.75.75 0 0 0 .108 1.493V22l.2-.005A3.75 3.75 0 0 0 22 18.25Zm-6.5-3a.75.75 0 0 0-.75-.75l-.2.005a3.75 3.75 0 0 0 .2 7.495l.102-.007a.75.75 0 0 0-.102-1.493l-.154-.005A2.25 2.25 0 0 1 14.75 16l.102-.007a.75.75 0 0 0 .648-.743Zm3.5 3a.75.75 0 0 0-.75-.75h-3.5l-.102.007A.75.75 0 0 0 14.75 19h3.5l.102-.007A.75.75 0 0 0 19 18.25Z"/></svg>
